X: 1861
T: Tadı Yok Sensiz Geçen...
C: Muzaffer İlkar
O: Turkey
F: http://compmusic.upf.edu/node/140
N: hicaz--sarki--semai--tadi_yok--muzaffer_ilkar
N: makam= hicaz
N: form= sarki
N: usul= semai = 3/4
M: 3/4
L: 1/16
K: C _7/8B ^f ^c 
Q: 1/4=129
%%MIDI tuningsystem comma53
A4 c4 e4  | a4 =f4 d4  | e2=f2 e2d2 c2B2  | A12  | \
w:  ARANAĞME  |   |   |   | 
d2e2 f4 a4  | g4 =f4 e4  | e2=f2 e2d2 c2d2  | 
w:   |   |   | 
e12  | g8 =f2e2  | g8 =f2e2  | a2b2 a2g2 =f2e2  | d12  | \
w:   |   |   |   |   | 
c2d2 e4 d2c2  | B2c2 d4 c2B2  | 
w:   |   | 
e2d2 c2B2 B2A2  | A12  | A4 c4 e4  | a4 =f4 d4  | \
w:   |   |  ARANAĞME  |   | 
e2=f2 e2d2 c2B2  | A12  | d2e2 f4 a4  | 
w:   |   |   | 
g4 =f4 e4  | e2=f2 e2d2 c2d2  | e12  | g8 =f2e2  | \
w:   |   |   |   | 
g8 =f2e2  | a2b2 a2g2 =f2e2  | 
w:   |   | 
d12  | c2d2 e4 d2c2  | B2c2 d4 c2B2  | e2d2 c2B2 B2A2  | A12  | \
w:   |   |   |   |   | 
A4 c8  | e12  | 
w:  Ta dı   |  yok   | 
c12  | d8 B4  | A2c2 e2c2 d2B2  | A12  | c4 d4 e4  | \
w:  sen  |  siz  ge  |  çen  SAZ  |   |  ne  ba ha  | 
d8 c4  | d8 c2B2  | B12  | d8 c2B2  | 
w:  rın   |  ne  ya  |  zın    |  SAZ  | 
B12  | e4 f4 g4  | e8 d4  | =f8 e2d2  | d12  | a12  | \
w:   |  ne  ba ha  |  rın   |  ne  ya  |  zın    |  SAZ  | 
b2a2 g2=f2 e2d2  | c2d2 c2B2 B2A2  | 
w:   |   | 
A12  | A4 c8  | e12  | c12  | d8 B4  | A2c2 e2c2 d2B2  | A12  | \
w:   |  Ta dı   |  yok   |  sen  |  siz  ge  |  çen  SAZ  |   | 
c4 d4 e4  | d8 c4  | d8 c2B2  | 
w:  ne  ba ha  |  rın   |  ne  ya  | 
B12  | d8 c2B2  | B12  | e4 f4 g4  | e8 d4  | \
w:  zın    |  SAZ  |   |  ne  ba ha  |  rın   | 
=f8 e2d2  | d12  | a12  | b2a2 g2=f2 e2d2  | 
w:  ne  ya  |  zın    |  SAZ  |   | 
c2d2 g4 =f2e2  | e12  | a8 g2=f2  | e12  | \
w:   |   |  Kal ma  |  dı   | 
d4 c4 d2e2  | =f12  | =f2e2 d2c2 d2e2  | 
w:  te sel li  |  si   |  SAZ  | 
=f12  | e4 g6=f2  | e8 d4  | d8 d2c2  | c12  | \
w:   |  ne  şar kı  |  nın   |  ne  sa  |  zın    | 
d8 d2c2  | c12  | =f4 e6d2  | c4 e8  | d8 c2B2  | 
w:  SAZ  |   |  ne  şar kı  |  nın   |  ne  sa  | 
A8 z4  | a12  | b2a2 g2=f2 e2d2  | c2d2 g4 =f2e2  | e12  | \
w:  zın    |  SAZ  |   |   |   | 
a8 g2=f2  | e12  | d4 c4 d2e2  | 
w:  Kal ma  |  dı   |  te sel li  | 
=f12  | =f2e2 d2c2 d2e2  | =f12  | e4 g6=f2  | \
w:  si   |  SAZ  |   |  ne  şar kı  | 
e8 d4  | d8 d2c2  | c12  | d8 d2c2  | c12  | 
w:  nın   |  ne  sa  |  zın    |  SAZ  |   | 
=f4 e6d2  | c4 e8  | d8 c2B2  | A8 z4  | a12  | \
w:  ne  şar kı  |  nın   |  ne  sa  |  zın    |  SAZ  | 
b2a2 g2=f2 e2d2  | b2c'2 d'4 c'2b2  | 
w:   |   | 
a12  | a4 b4 c'4  | d'12  | c'4 b8  | c'4 a8  | \
w:   |  Sa rıl  |  dım   |  ka deh  |  le re   | 
d'2c'2 b2a2 b2c'2  | a12  | a4 b4 a4  | \
w:  SAZ  |   |  der man_ o  | 
^g8 =f4  | 
w:  lur   | 
e4 =f4 ^f4  | g12  | e4 =f4 ^f4  | g12  | e4 a4 g4  | =f12  | \
w:  di ye  |  rek    |  SAZ  |   |  der man_ o  |  lur   | 
e4 =f4 e2d2  | d12  | a12  | b2a2 g2=f2 e2d2  | 
w:  di ye  |  rek    |  SAZ  |   | 
b2c'2 d'4 c'2b2  | a12  | a4 b4 c'4  | d'12  | \
w:   |   |  Sa rıl  |  dım   | 
c'4 b8  | c'4 a8  | d'2c'2 b2a2 b2c'2  | a12  | 
w:  ka deh  |  le re   |  SAZ  |   | 
a4 b4 a4  | ^g8 =f4  | e4 =f4 ^f4  | g12  | \
w:  der man_ o  |  lur   |  di ye  |  rek    | 
e4 =f4 ^f4  | g12  | e4 a4 g4  | =f12  | e4 =f4 e2d2  | 
w:  SAZ  |   |  der man_ o  |  lur   |  di ye  | 
d12  | a12  | b2a2 g2=f2 e2d2  | c2d2 g4 =f2e2  | e12  | \
w:  rek    |  SAZ  |   |   |   | 
a8 g2=f2  | e12  | d4 c4 d2e2  | 
w:  Kal ma  |  dı   |  te sel li  | 
=f12  | =f2e2 d2c2 d2e2  | =f12  | e4 g6=f2  | \
w:  si   |  SAZ  |   |  ne  şar kı  | 
e8 d4  | d8 d2c2  | c12  | d8 d2c2  | c12  | 
w:  nın   |  ne  sa  |  zın    |  SAZ  |   | 
=f4 e6d2  | c4 e8  | d8 c2B2  | A8 z4  | |


